flags/af.svg

<svg width="512" height="512" viewBox="0 0 512 512" fill="none" xmlns="http://www.w3.org/2000/svg">
<path d="M384 512L128 512L128 -1.11901e-05L384 1.11901e-05L384 512Z" fill="var(--flag-palette-bright-red, #d80027)"/>
<path d="M144 512L-5.28978e-05 512L0 -6.29444e-06L144 6.29444e-06L144 512Z" fill="var(--flag-palette-black, #333333)"/>
<path d="M512 512L368 512L368 -6.29444e-06L512 6.29444e-06L512 512Z" fill="var(--flag-palette-dark-green, #496e2d)"/>
<path d="M256 166.957C206.822 166.957 166.957 206.823 166.957 256C166.957 305.177 206.823 345.043 256 345.043C305.177 345.043 345.043 305.177 345.043 256C345.043 206.823 305.178 166.957 256 166.957ZM256 311.652C225.264 311.652 200.348 286.735 200.348 256C200.348 225.265 225.265 200.348 256 200.348C286.735 200.348 311.652 225.265 311.652 256C311.652 286.735 286.736 311.652 256 311.652Z" fill="var(--flag-palette-yellow, #ffda44)"/>
<path d="M256 222.609C243.705 222.609 233.739 232.575 233.739 244.87V278.261H278.261V244.87C278.261 232.575 268.295 222.609 256 222.609Z" fill="var(--flag-palette-yellow, #ffda44)"/>
</svg>

<svg xmlns="http://www.w3.org/2000/svg" width="512" height="512" fill="none"><path fill="var(--flag-palette-bright-red, #d80027)" d="M384 512H128V0h256z"/><path fill="#333" d="M144 512H0V0h144z"/><path fill="var(--flag-palette-dark-green, #496e2d)" d="M512 512H368V0h144z"/><path fill="var(--flag-palette-yellow, #ffda44)" d="M256 167a89 89 0 1 0 0 178 89 89 0 0 0 0-178m0 144.7a55.7 55.7 0 1 1 0-111.4 55.7 55.7 0 0 1 0 111.4"/><path fill="var(--flag-palette-yellow, #ffda44)" d="M256 222.6c-12.3 0-22.3 10-22.3 22.3v33.4h44.6v-33.4c0-12.3-10-22.3-22.3-22.3"/></svg>
